X:1
T:Title
%%score { ( 1 3 ) | ( 2 4 ) }
L:1/8
M:4/4
K:Eb
V:1 treble nm="Grand Piano"
V:3 treble 
V:2 bass 
V:4 bass 
V:1
 z4 z2[Q:1/4=100] E2 | G2 G>F E2 G>[GB] | e2 e>c [GB]3 [FA] | G2 G>F E2 G>G | %4
 [DF]2 [DF]>[EG] [DF]3 E | G2 G>F E2 G>[GB] | e2 e>c [GB]3 [GB] | =A2 A>G F2 e>e | %8
[M:9/8] d2 c- c<.c z A,3 |[M:4/4] G2 [DF]>[DG] E4 | B2 G>[GB] [Ge]4 | c>d e>c [GB]>[Ac] [GB]>[EG] | %12
[M:2/4] [DF]>[DG] [DA]>[DG] | [DF]2 [DB]2 |[M:4/4] [EG]2 [DF]>[DG] E4 | B2 G>[GB] [Ge]4 | %16
 c>d e>c [EGB]>[B,EG] [G,E]>[B,EG] |[M:3/4] [DF]4 z2 |] %18
V:2
 z4 z2 [E,G,]2 | [E,B,E]2 [E,B,E]>[E,A,E] [E,G,]2 [E,B,E]>[E,B,] | %2
 [A,CA]2 [A,CA]>[A,EA][K:bass] [E,E]3 [D,B,] | [E,B,E]2 [E,B,E]>[E,A,E] [E,G,]2 [E,B,E]>[E,B,E] | %4
 [B,,B,]2 [B,,B,]>[B,,B,] [B,,A,]3 [E,G,] | [E,B,E]2 [E,B,E]>[E,A,E] [E,G,]2 [E,B,E]>[E,B,] | %6
 [A,CA]2 [A,CA]>[A,EA][K:bass] [E,E]3 [E,E] | [F,EF]2 [F,EF]>[F,E] [F,=A,E]2 [F,A,F]>[F,A,F] | %8
[M:9/8] [F,B,F]2 [F,=A,F]- [F,A,F]/[F,A,E]/ F,2 z3 |[M:4/4] [E,B,E]2 [B,,A,]>[B,,B,] [E,G,]4 | %10
 [E,G,E]2 [E,B,E]>[E,B,] [E,B,]4 | [A,EA]>[A,EA] [A,CA]>[A,EA][K:bass] [E,E]>[E,E] [E,E]>[E,B,] | %12
[M:2/4] [B,,B,]>[B,,B,] [B,,B,]>[B,,B,] | [B,,B,]2 [B,,A,]2 | %14
[M:4/4] [E,B,]2 [B,,A,]>[B,,B,] [E,G,]4 | [E,G,E]2 [E,B,E]>[E,B,] [E,B,]4 | %16
 [A,EA]>[A,EA] [A,CA]>[A,EA][K:bass] E,>E, E,>E, |[M:3/4] z2 A,2 E,2 |] %18
V:3
 x8 | x8 | x8 | x8 | x8 | x8 | x8 | x8 |[M:9/8] z3 z [DB]2- [DB]3 |[M:4/4] x8 | x8 | x8 | %12
[M:2/4] x4 | x4 |[M:4/4] x8 | x8 | x8 |[M:3/4] B,2 z2 [G,E]2 |] %18
V:4
 x8 | x8 | x4[K:bass] x4 | x8 | x8 | x8 | x4[K:bass] x4 | x8 |[M:9/8] z3 z B,,2- B,,3 |[M:4/4] x8 | %10
 x8 | x4[K:bass] x4 |[M:2/4] x4 | x4 |[M:4/4] x8 | x8 | x4[K:bass] x4 |[M:3/4] B,,4 z2 |] %18

